**kern	**silbe
*ICvox	*
*C:	*
*M4/4	*
*clefC3	*
r;	.
=1	=1
1r	.
=2	=2
1r	.
=3	=3
1r	.
=4	=4
1r	.
=5	=5
1r	.
=6	=6
1r	.
=7	=7
1r	.
=8	=8
1r	.
=9	=9
8r	.
8d	Ne-
8c	-ver
8d	know
8c	how
8d	much
8A	I
[8c	love
=10	=10
16c]	_
8d	you
16r	.
4r	.
2r	.
=11	=11
8d	ne-
8c	-ver
8d	know
8c	how
8d	much
8c	_
8A	I
8A	care.
=12	=12
1r	.
=13	=13
8d	When
8c	you
8d	put
8c	your
4d	arms
8A	a-
[8c	-round
=14	=14
8c]	_
8d	me
4r	.
8r	.
8A	I
8A	get
8A	a
=15	=15
8d	fe-
8c	-ver
8d	that's
8c	so
8d	hard
8c	_
8A	to
[8A	bear,
=16	=16
8A]	_
8A	you
8A	give
8A	me
4c	fe-
4A	-ver
=17	=17
1r	.
=18	=18
8r	.
8dq	_
[8e-	when
8e-]	_
8c	you
4d	kiss
4c	me,
=19	=19
8d	fe-
8c	-ver
8d	all
8c	_
8d	through
8c	_
8A	the
[8A	night
=20	=20
4A]	_
4r	.
2r	.
=21	=21
12g	Fe-
12a	-ver!
12r	.
4r	.
4r	.
8r	.
8d	In
=22	=22
8c	the
8d	mor-
8c	-nin'
8r	.
4r	.
8r	.
8G	a'-
=23	=23
8d	-fe-
8c	-ver
4d	all
8d	through
8c	_
8A	the
8A	night.
=24	=24
1r	.
=25	=25
8r	.
4.d	Sun
8c	lights
8d	up
8r	.
8A	the
=26	=26
8c	day-
8d	-time
4r	.
4r	.
8r	.
8A	the
=27	=27
4e-	moon
4d	lights
4c	up
8A	the
8A	night
=28	=28
2r	.
4r	.
8r	.
8gq	_
[8a	I
=29	=29
6a]	_
6e-	light
6e-	up
6d	when
6d	you
12e-	call
[12d	_
=30	=30
4d]	_
8c	my
8A	name
8r	.
4A	and
8A	you
=31	=31
8d	know
8c	I'm
8d	gon-
8c	-na
8d	treat
8c	_
8A	you
[8A	right,
=32	=32
8A]	_
8A	you
8A	give
8A	me
4c	fe-
4A	-ver.
=33	=33
1r	.
=34	=34
8r	.
8dq	_
[8e-	When
8e-]	_
8c	you
4d	kiss
4c	me,
=35	=35
8d	fe-
8c	-ver
8d	all
8c	_
8d	through
8c	_
8A	the
[8A	night
=36	=36
4A]	_
4r	.
4r	.
12r	.
12r	.
12g	Fe-
=37	=37
8a	-ver!
8r	.
4r	.
4r	.
8r	.
8d	In
=38	=38
8c	the
8d	mor-
8c	-nin',
8r	.
4r	.
8r	.
8G	a-
=39	=39
8d	-fe-
8c	-ver
4d	all
8d	through
8c	_
8A	the
8A	night.
=40	=40
1r	.
=41	=41
8r	.
4c	Ev-
8A	-'ry-
4A	-bo-
4G	-dy's
=42	=42
8r	.
4A	got
8G	the
4A	fe-
4c	-ver,
=43	=43
8r	.
8c	that
4A	is
4A	some-
4G	-thin'
=44	=44
8A	you
4G	all
8A	know
2r	.
=45	=45
8r	.
4c	Fe-
8A	-ver
4A	is-
4G	-n't
=46	=46
8r	.
4A	such
8G	a
4A	new
4c	thing,
=47	=47
8d	fe-
8c	-ver
8d	star-
8c	-ted
8d	long
8c	_
8A	a-
8A	-go.
=48	=48
1r	.
=49	=49
*b-:	*
1r	.
=50	=50
1r	.
=51	=51
1r	.
=52	=52
1r	.
=53	=53
8r	.
4e-	Ro-
8d-	-me-
4e-	-o
8B-	loved
[8d-	Ju
=54	=54
16.d-]	_
32d-	li-
8e-	-et
4r	.
4r	.
8r	.
8e-q	_
[8e	Ju
=55	=55
8e]	_
8e	li-
8e	-et,
[8e	she
8e]	_
16d#	felt
16e	_
6d#	_
[12d-	the
=56	=56
12d-]	_
6B-	same
4r	.
4r	.
8r	.
8F	And
=57	=57
8e-	when
8d-	he
8e-	put
8d-	his
4e-	arms
8B-	a-
[8d-	-round
=58	=58
8d-]	_
8e-	her
4r	.
8r	.
8B-	he
8B-	said
[8e-	\"Ju
=59	=59
24e-]	_
8d-	lie,
8e-	ba-
8d-	-by,
[12e-	you're
8e-]	_
8d-	_
8B-	my
[8B-	flame
=60	=60
6B-]	,\"
6B-	thou
12B-	gi-
[12B-	-vest
8B-]	_
8d-	fe-
4B-	-ver.
=61	=61
1r	.
=62	=62
8r	.
8e-q	_
[8f-	When
8f-]	_
8d-	we
8e-	kiss-
8d-	-eth
8r	.
[8e-	fe
=63	=63
24e-]	_
8d-	ver
8e-	with
[8d-	thy
12d-]	_
8e-	fla
8d-	_
8B-	min'
8B-	youth.
=64	=64
2r	.
4r	.
12r	.
12r	.
12a-	Fe-
=65	=65
8b-	-ver!
8r	.
4r	.
4r	.
8r	.
8e	I'm
=66	=66
8d-	a-
8e-	-fi-
8d-	-re
8r	.
4r	.
8r	.
8e-	fe-
=67	=67
8d-	-ver,
8e-	yea,
4d-	I
6e-	burn
6d-	_
[6B-	for
=68	=68
8B-]	_
4B-	sooth
8r	.
2r	.
=69	=69
*b:	*
1r	.
=70	=70
1r	.
=71	=71
1r	.
=72	=72
1r	.
=73	=73
6r	.
6e	Cap-
6d	-tain
12e	Smith
12d	and
12r	.
8r	.
8e	Po-
=74	=74
8B	-ca-
8d	-han-
8e	-tas
8r	.
4r	.
8r	.
8dq	_
[8e	had
=75	=75
8e]	_
8d	a
8e	ve-
8d	-ry
8e	mad
8d	_
8B	af-
[8B	-fair
=76	=76
8F#q	_
8B]	_
8r	.
4r	.
2r	.
=77	=77
8e	When
8d	her
8e	dad-
8d	-dy
8r	.
8e	tried
8B	to
[8d	kill
=78	=78
8d]	_
8e	him
4r	.
8r	.
8B	she
4B	said,
=79	=79
8e	\"Dad-
8d	-dy,
8e	oh,
8d	_
8e	don't
8d	_
8B	you
[8B	dare
=80	=80
8B]	,\"
8B	he
8B	gives
8B	me
4d	fe-
4B	-ver.
=81	=81
1r	.
=82	=82
8r	.
8eq	_
[8f	With
8f]	_
8d	his
8e	kis-
8d	-ses
8r	.
[8e	fe
=83	=83
8e]	_
8d	ver
8e	when
8d	he
8e	holds
8d	_
8B	me
[8B	tight
=84	=84
4B]	_
4r	.
4r	.
12r	.
12r	.
12a	Fe-
=85	=85
8b	-ver!
8r	.
4r	.
4r	.
8r	.
8e	I'm
=86	=86
8.d	his
16e	mis-
8d	-sus
8r	.
4r	.
8r	.
8A	and
=87	=87
8e	dad-
8d	-dy,
8e	won't
8d	you
8e	treat
8d	_
8B	him
[8B	right
=88	=88
8B]	_
8r	.
4r	.
4r	.
8r	.
[8e	Now
=89	=89
6e]	_
6d	you've
12e	lis-
[12d	-tened
8d]	_
8e	to
4B	my
=90	=90
8d	sto-
8e	-ry
4r	.
4r	.
8r	.
[8e	here's
=91	=91
8e]	_
8d	the
8e	point
8d	that
8e	I
8d	_
8B	have
[8B	made
=92	=92
8B]	_
8r	.
4r	.
4r	.
8r	.
[8e	chicks
=93	=93
8e]	_
8d	were
8e	born
8d	to
4e	give
8B	you
[8d	fe
=94	=94
8d]	_
8e	ver
4r	.
8r	.
8B	be
8B	it
[8e	Fah
=95	=95
24e]	_
8d	ren-
8e	-heit
[8d	or
12d]	_
8e	Cen
8d	_
8B	ti-
[8B	-grade,
=96	=96
8B]	_
8B	they
8B	give
8B	you
4d	fe-
4B	-ver.
=97	=97
1r	.
=98	=98
8r	.
8eq	_
[8f	When
8f]	_
8d	you
8e	kiss
8d	them,
8r	.
[8e	fe
=99	=99
8e]	_
8d	ver
8e	if
8d	you
8e	live
8d	_
8B	and
[8B	learn
=100	=100
4B]	_
4r	.
4r	.
12r	.
12r	.
12a	Fe-
=101	=101
8b	-ver!
8r	.
4r	.
4r	.
8r	.
8e	'Till
=102	=102
4d	you
12e	siz-
6d	-zle
4r	.
8r	.
8A	Oh,
=103	=103
8e	what
8d	a
8e	love-
8d	-ly
8e	way
8d	_
8B	to
[8B	burn
=104	=104
4B]	_
8r	.
4r	.
4r	.
8A	Oh,
=105	=105
8e	what
8d	a
8e	love-
8d	-ly
8e	way
8d	_
8B	to
[8B	burn
=106	=106
4B]	_
4r	.
6r	.
6r	.
6b	What
=107	=107
8eq	_
6f	a
8e	love-
8d	-ly
12e	way
4d	_
8B	to
[8B	burn!
=108	=108
4B]	_
8r	.
4r	.
4r	.
8A	Oh,
=109	=109
8e	what
8d	a
8e	love-
8d	-ly
8e	way
8d	_
8B	to
[8B	burn
=110	=110
2B]	_
2r	.
=111	=111
1r	.
=112	=112
1r	.
r;	.
r;	.
*-	*-
!!!ENC: Nathaniel Condit-Schultz